X:1
T:Lord of Carnarvan's Jegg
C:John Playford, The English Dancing Master, 1651
N:arr. Dave Lankford. Matches Pile 2018
P:Play 8 times
M:C|
L:1/4
K:C major
"G"BG B/c/d | "F"cA A/B/c/d/ | "G"BG de/f/ | g2 d2 | BG B/c/d | "F"cA A/B/c/d/ | "G"BG de/f/ | g2 de/f/ ||
"G"g/f/e/d/ g3/B/ | "F"AA cd/c/ | "G"BA b3/a/ | "C"g2 "G"d2 | "G"g/f/e/d/ g3/B/ | "F"AA cd/c/ | "G"BA b3/a/ | "C"g2 "G"d2 |]

